X: 6663
T: Ceilier, The
R: reel
M: 4/4
K: Gmajor
Bc|:"G"dGBd "D"cAAc|"G"ABBd gfde|"C"Bcde ede/f/g|"D"fdcB cAAc|
"G"B2 DA "Em"G3B|"G"DGBd "Am"cAAc|"C"d3e fde/f/g|"D"fdcA "G"G2Bc:|
"G"dgbg "(D5)"ggbg|"G"ggbg dcBc|"Dm7"de=fe d3c|de=fe dcBc|
"G"dgfa "D"fgga|"G"abag "(G5/M7)"fdde|"Dm7"=f2 ed "C"cAAA|1 "D"B/c/dcA "G"G2 Bc:|2 "D"B/c/dcA "G"G4||

